X:548
T:Gaudete (verse)
Z:Jack Campin, http://www.campin.me.uk/
F:Jack Campin's Nine-Note Tunebook
% last edit 03-02-2013
C:anon. (Piae Cantiones 1582) 
N:from Steeleye Span's rendition
Z:ABC transcription Stephan Steiner
N:This goes with the chorus following.  It fits in a 9-note range for
N:a pair of instruments an octave apart.  Or you can do it on a 9-note
N:instrument a fourth or fifth apart from the C-d range mostly used here.
M:4/4
L:1/8
Q:1/4=124
V:1 transpose +12
V:2
V:3
K:DDor
[V:1] DD  CD FE D2|z8           |
[V:2] z8          |d_B AB G2 G2 |
[V:3] dd  cd fe d2|d_B AB G2 G2 |
%
[V:1] z8          |FD  EF D2 D2|]
[V:2] GG _BG Bc d2|z8          |]
[V:3] GG _BG Bc d2|fd  ef d2 d2|]

